X: 1
T: Almas polska
C: Mats Wallman
R: polska, hambo
S: Bruce Sagan's "scanfolk" archive
F: https://app.box.com/s/u6iiren0igvsukrhdducy7orq72jayq8/file/798222882884 2010-4-12
Z: 2021 John Chambers <jc:trillian.mit.edu>
M: 3/4
L: 1/8
K: G
"A"|:\
"G"{A}B2 (B>d) "D7"c>A | "G"{A}B2 (GF) (D2 |\
[1,3 "C"E2) (EG) "Am"c>A | [A2E2] "D7"{E}[A4F4] :|\
[2,4 "C"E2 "Am"([cE]B) A>G | "D7"AB/A/ "G"{F}[G4G,4] :|
"B"|:\
"G"{A}B2 (Bd) "D7"f>a | "C"~g2 (ec) "G"d>B |\
[G2G,2] "C"([cG]B) A>G |[1,3 "D"A2 {A}d4 :|[2,4 "D"AB/A/ "G"{F}[G4G,4] :|
